flaticon/productivity/target-2.svg

<svg xmlns="http://www.w3.org/2000/svg" width="32" height="32" viewBox="0 0 24 24">
    <path d="M 12 8.511719 C 10.078125 8.511719 8.515625 10.078125 8.515625 12 C 8.515625 13.921875 10.078125 15.484375 12 15.484375 C 13.921875 15.484375 15.488281 13.921875 15.488281 12 C 15.488281 10.078125 13.921875 8.511719 12 8.511719 Z M 12 14.417969 C 10.667969 14.417969 9.582031 13.332031 9.582031 12 C 9.582031 10.664062 10.667969 9.582031 12 9.582031 C 13.335938 9.582031 14.417969 10.664062 14.417969 12 C 14.417969 13.332031 13.335938 14.417969 12 14.417969 Z M 12 14.417969"/>
    <path d="M 24 11.464844 L 21.566406 11.464844 C 21.296875 6.609375 17.390625 2.703125 12.535156 2.433594 L 12.535156 0 L 11.464844 0 L 11.464844 2.433594 C 6.609375 2.703125 2.703125 6.609375 2.433594 11.464844 L 0 11.464844 L 0 12.535156 L 2.433594 12.535156 C 2.703125 17.390625 6.609375 21.296875 11.464844 21.566406 L 11.464844 24 L 12.535156 24 L 12.535156 21.566406 C 17.390625 21.296875 21.296875 17.390625 21.566406 12.535156 L 24 12.535156 Z M 20.496094 11.464844 L 18.417969 11.464844 C 18.160156 8.339844 15.660156 5.839844 12.535156 5.582031 L 12.535156 3.503906 C 16.804688 3.769531 20.230469 7.195312 20.496094 11.464844 Z M 12 17.371094 C 9.039062 17.371094 6.628906 14.960938 6.628906 12 C 6.628906 9.039062 9.039062 6.628906 12 6.628906 C 14.960938 6.628906 17.371094 9.039062 17.371094 12 C 17.371094 14.960938 14.960938 17.371094 12 17.371094 Z M 11.464844 3.503906 L 11.464844 5.582031 C 8.339844 5.839844 5.839844 8.339844 5.582031 11.464844 L 3.503906 11.464844 C 3.769531 7.195312 7.195312 3.769531 11.464844 3.503906 Z M 3.503906 12.535156 L 5.582031 12.535156 C 5.839844 15.660156 8.339844 18.160156 11.464844 18.417969 L 11.464844 20.496094 C 7.195312 20.230469 3.769531 16.804688 3.503906 12.535156 Z M 12.535156 20.496094 L 12.535156 18.417969 C 15.660156 18.160156 18.160156 15.660156 18.417969 12.535156 L 20.496094 12.535156 C 20.230469 16.804688 16.804688 20.230469 12.535156 20.496094 Z M 12.535156 20.496094"/>
    <path d="M 12.09375 12.847656 L 11.152344 11.90625 L 11.90625 11.152344 L 12.847656 12.09375 Z M 12.09375 12.847656"/>
</svg>

<svg xmlns="http://www.w3.org/2000/svg" width="32" height="32" viewBox="0 0 24 24">
    <path d="M12 8.512A3.49 3.49 0 0 0 8.516 12 3.488 3.488 0 0 0 12 15.484 3.49 3.49 0 0 0 15.488 12 3.494 3.494 0 0 0 12 8.512zm0 5.906A2.422 2.422 0 0 1 9.582 12 2.417 2.417 0 1 1 12 14.418zm0 0"/>
    <path d="M24 11.465h-2.434c-.27-4.856-4.175-8.762-9.03-9.031V0h-1.071v2.434c-4.856.27-8.762 4.175-9.031 9.03H0v1.071h2.434c.27 4.856 4.175 8.762 9.03 9.031V24h1.071v-2.434c4.856-.27 8.762-4.175 9.031-9.03H24zm-3.504 0h-2.078a6.45 6.45 0 0 0-5.883-5.883V3.504a8.523 8.523 0 0 1 7.961 7.96zM12 17.37A5.378 5.378 0 0 1 6.629 12c0-2.96 2.41-5.371 5.371-5.371 2.96 0 5.371 2.41 5.371 5.371 0 2.96-2.41 5.371-5.371 5.371zm-.535-13.867v2.078a6.45 6.45 0 0 0-5.883 5.883H3.504a8.523 8.523 0 0 1 7.96-7.961zm-7.961 9.031h2.078a6.45 6.45 0 0 0 5.883 5.883v2.078a8.523 8.523 0 0 1-7.961-7.96zm9.031 7.961v-2.078a6.45 6.45 0 0 0 5.883-5.883h2.078a8.523 8.523 0 0 1-7.96 7.961zm0 0"/>
    <path d="M12.094 12.848l-.942-.942.754-.754.942.942zm0 0"/>
</svg>
